X:1
T:The Rag time dance.
T:THE “RAG TIME  DANCE.”
T:Words  and  Music by SCOTT  JOPLIN.
T:To my friend Bobby Kemp.
T:Notice : To get the desired effect of “Stop Time” the pianist will please Stamp the heel of one foot heavily upon the floor at the word “Stamp,”  Do not raise the toe from the floor while stamping. Author.
T:1 st Lady........“dance.” 2 nd Lady........“dance.” 3 rd Lady........“dance.” 4th  Lady........“dance.”
T:After the ladies are through dancing then the
T:1 st Gent........“dance.” 2 nd Gent........“dance.” 3 rd Gent........“dance.” 4th  Gent........“dance.”
T:Public Domain
T:Public Domain
T:Public Domain
T:Public Domain
T:Public Domain
T:Public Domain
T:Public Domain
T:Public Domain
T:Public Domain
T:Public Domain
T:Public Domain
T:Public Domain
T:Public Domain
C:Scott Joplin
Z:Public Domain
%%score ( 1 2 ) { ( 3 5 ) | ( 4 6 ) }
L:1/8
Q:1/4=80
M:2/4
K:Bb
V:1 treble nm="VOICE."
V:2 treble 
V:3 treble nm="PIANO."
V:5 treble 
V:4 bass 
V:6 bass 
V:1
"_Not fast." z4 | z4 | z4 | z4 |: %4
w: ||||
w: ||||
"^This measure to be vamped until singer\n      is ready." z2 z F/ F/ :| F/ F F/ F F | %6
w: I at-|ten- ed a ball last|
w: ||
 G B/ B/- B2 | d/ d/ d/ d/ f d | c2- c F/ F/ | F F/ F/- F/ F/ F | G B B B/ B/ | A F/ F/ G c | %12
w: thurs- day night _|Gi- ven by the dark town|swells _ Ev’- ry|coon came out _ in full|dress al- right and the|girls were so- cie- ty|
w: ||||||
{/c} F2- F F | F F/ F/ F/ F/ F/ F/ | G/ G/ B/ B/ B3/2 B/ | (3(d/ d/ d/) d/ d/ f d | c2- c F | %17
w: belles _ The|hall was il- lu- mi- na- ted|by e- lec- tric lights it|cer- tain- ly was a sight to|see _ So|
w: |||||
 B/ B/ B/ B/ d d/ d/ | e/ e/ G/ G/ !fermata!B =E/ E/ | F3/2 d/ c F | B2- B D/ D/ | %21
w: ma- ny col- ored folks there with-|out a ra- zor fight twas a|great sur- prise to|me _ There was|
w: ||||
 G/ G/ B d3/2 d/ | e e/ e/ d/ G/ G/ A/ | (3(B/ B/ B/) B/ B/ (3(A/ A/ A/) B/ A/ | G2- G D/ D/ | %25
w: lit- tle Sam’ Smith the|great “la- dy’s man” who had the|hon- or of be- ing man- a- ger of the|floor _ Told the|
w: ||||
 G/ G/ B/ B/ d/ d/ d/ d/ | e/ e/ e/ e/ d B/ B/ | A/ A/ A/ A/ =e/ e/ ^c/ A/ | d2- d D/ D/ | %29
w: peo ple to get re- ady for the|time is near at hand And the|dance be- gins at nine o’- clock you|know _ Then the|
w: ||||
 G/ G/ B/ B/ d/ d/ d/ d/ | e/ e/ e/ e/ d/ G/ G/ A/ | B (3(B/ B/ B/) A B/ A/ | G3 d/ d/ | %33
w: or- ches- tra be- gan to play the|sweet entr- anc- ing mu- sic of the|most pop- u- lar dance of the|day Ev’- ry|
w: ||||
 e/ e/ e/ e/ d/ d/ d/ d/ | c/ c/ c/ c/ B/ B/ G/ A/ | B/ B/ B/ B/ c/ c ^c/ | d2 (f !fermata!F) |: %37
w: cou- ple took their pla- ces all the|coons had smil- ing fac- es while they|wait- ed for the cal- ler to|say well _|
w: ||||
 B/ c/ d- d/ c/ B/ c/ | d F F2 | z4 | z4 | (c/ d/) e- e/ d/ c/ d/ | e F F2 | z4 | z4 | %45
w: Let me see * you do the|“rag time dance”|||Turn * left * and do the|“Cake walk prance”|||
w: Let me see * you do the|“clean up dance”|||Now you do * the “Jen- nie|Cool- er dance”|||
 B/ c/ d/ d/ d/ c/ B/ c/ | d F- F2 | z4 | z4 | %49
w: Turn the oth- er way and do the|“Slow drag” _|||
w: Turn the oth- er way and do the|“Slow drag” _|||
"^1\nst\n and 2\nnd\n verses.\nBegin“Worlds fair dance,” here." (G/ A/) B/ A/ B/ A/ B/ G/ | %50
w: Now _ take your la- dy to the|
w: Now _ take your la- dy to the|
 F d- d F |"^1\nst\n and 2\nnd\n verses.\nBegin “Rag time dance.”\n  here" c3/2 d/ c F |1 %52
w: worlds fair _ And|do the “rag time|
w: worlds fair _ And|do the “rag time|
 B2- B z :|2 B2- B z ||[K:Eb] z4 | z4 | z4 | z4 |: B e- e/ e/ (d/ c/) | (c/ B/) =A/ B/- B2 | %60
w: dance” _|dance” _|||||Now “rag” * and “cir- cle|to _ your left” _|
w: ||||||* bo- * dy now _|“form _ a line” _|
"^1\nst\n verse, begin “Circle”\n2\nnd\n verse, “Form line”\n    here" G c- c/ c/ (B/ A/) | %61
w: Be care- * ful to _|
w: Dance noth- * ing but the|
 (A/ G/) ^F/ G/- G2 | c/ d c/- c2 | B c/ B/- B2 | %64
w: do _ your best _|take your time _|stay in line _|
w: real * rag time _|do your best _|_ _ steps” _|
"^2\nnd\n verse, begin “Forward four steps.”\n             here" d/ F ^F/ G =A | B2- B z | %66
w: you are the rag time|guest _|
w: you are all ve- ry|fine _|
 B e- e/ e/ d/ c/ | (c/ B/) =A/ B/- B2 | %68
w: Take part- * ners do the|“rag * two step” _|
w: _ see _ you do the|“back * step prance” *|
"^1\nst\n verse, begin “Rag two step,”\n2\nnd\n verse, begin “Back step prance.”\n               here" G c- c/ c/ (B/ A/) | %69
w: I know _ you are en-|
w: Be grace _ ful at _|
 (A/ G/) ^F/ G/- G2 | c E F ^F | G B2 A |"^Begin “Rag time dance”\n   here" G2 F2 |1 %73
w: joy- ing your- selves *|you are rep- re-|sent- tives of|dark town’s|
w: ev’- * ry chance *|you are now en-|joy- ing the|“rag time|
 E B B/ B/ B :|2 E B/ B/ B/ B/ B |: %75
w: wealth stop where you are.|dance” ev’- ry- bo- dy sing.|
w: ||
"^1\nst\n verse, begin “Cake walk.”\n                  here" d f c3/2 =B/ | %76
w: “Cake walk” soft and|
w: To your right *|
"^2\nnd\n verse “Turn to your right.”\n  here" c c2 _B | %77
w: sweet- ly be|
w: “dude walk” *|
"^2\nnd\n verse, begin “Dude walk.”\n  here" c e B3/2 =A/ | B B2 E | D F A d | c3 F | E F G c | %82
w: sure your steps done|neat- ly keep|up a slow ad-|vance ’twill|put you in a|
w: * sight * the|“town talk” this|is your on- ly|chance en-|joy it while you|
 B3 B | d f c3/2 =B/ | c c2 _B |"^1\nst\n and 2\nnd\n verses, “Form line.”\n here" c e B3/2 =A/ | %86
w: trance now|“form a line” *|did * you’re|danc- ing with your|
w: can now|“form a per- fect|straight line” get|rea- dy for the|
 B B2 B | c E (F ^F) | G B2 A |"^Begin “Rag time dance.”\n  here." G2 F2 |1 E B/ B/ B/ B/ B :|2 %91
w: best beau *|on- ly real _|thing is the|“rag- time|dance” ev’- ry bo- dy turn|
w: “Stop time” you|are the “ea- sy|win- ners” *|rag- time||
 E2- E z |: z4 | z4 | z4 | z4 | z4 | z4 | z4 | z4 :: z4 | z4 | z4 | z4 | z4 | z4 | z4 |1 z4 :|2 %108
w: dance” _|||||||||||||||||
w: |||||||||||||||||
 z4 |: z4 | z4 | z4 | z4 | z4 |1 z4 | z4 | z4 :|2 z4 || z4 | z4 || z4 |: %121
w: |||||||||||||
w: |||||||||||||
!p!"^2\nnd\n verse, begin\n“Sedidus walk.”\n Everybody “in line” with last dancer." z4 | z4 | %123
w: ||
w: ||
 (G/ A/) B z G | F2- F z | z4 | z4 | (F/ G/) A z F |1 E2- E z :|2 E2- E z!fine! |] %130
w: Turn * left walk|round, _|||walk “Se- did- us”|now. _|dance.” _|
w: We’ve fin- * *|prance. _|||the * “Rag time|||
V:2
 x4 | x4 | x4 | x4 |: x4 :| x4 | x4 | x4 | x4 | x4 | x4 | x4 | x4 | x4 | x4 | x4 | x4 | x4 | x4 | %19
w: |||||||||||||||||||
w: |||||||||||||||||||
 x4 | x4 | x4 | x4 | x4 | x4 | x4 | x4 | x4 | x4 | x4 | x4 | x4 | x4 | x4 | x4 | x4 | x4 |: x4 | %38
w: |||||||||||||||||||
w: |||||||||||||||||||
 x4 | x4 | x4 | x4 | x4 | x4 | x4 | x4 | x4 | x4 | x4 | x4 | x4 | x4 |1 x4 :|2 x4 ||[K:Eb] x4 | %55
w: |||||||||||||||||
w: |||||||||||||||||
 x4 | x4 | x4 |: B/ B/ x x2 | x4 | x4 | x4 | x4 | x/ B/ c/ x/ x2 | x4 | x4 | B/ B/ x x/ x/ x | x4 | %68
w: |||||||||||||
w: |||Ev’- ry|||||ward four|||Let me||
 x4 | x4 | x4 | G/ G/ x3 | x4 |1 x4 :|2 x4 |: x3 c/ =B/ | x3 B/ B/ | c/ c/ x2 B/ x/ | x4 | x4 | %80
w: |||* a-|||||||||
w: |||||||do the|’tis a|wonderful * is|||
 x4 | x4 | x4 | x3 B/ =B/ | c/ c/ x2 x | x4 | x2 x B/ B/ | x4 | x x2 A/ A/ | x4 |1 x4 :|2 x4 |: %92
w: |||as you|* be-||but the||||||
w: ||||||||in the||||
 x4 | x4 | x4 | x4 | x4 | x4 | x4 | x4 :: x4 | x4 | x4 | x4 | x4 | x4 | x4 |1 x4 :|2 x4 |: x4 | %110
w: ||||||||||||||||||
w: ||||||||||||||||||
 x4 | x4 | x4 | x4 |1 x4 | x4 | x4 :|2 x4 || x4 | x4 || x4 |: x4 | x4 | x B/ B/ x G/ G/ | x4 | x4 | %126
w: |||||||||||||* * * a-|||
w: |||||||||||||ish- ed in a|||
 x4 | x4 |1 x4 :|2 x4 |] %130
w: ||||
w: ||||
V:3
 [df]/[df][df]/ [df]/[df]/[df]/[df]/ | [eg][gb]/[gb]/- [gb]/b/c'/^c'/ | d'/f^f/ [=eg][_ea] | %3
 [db][I:staff +1] (D,/E,/ F,)[I:staff -1][A,EF] |: %4
"^Vamp ’till ready." [B,DB]/[I:staff +1](D,/E,/=E,/ F,)[I:staff -1][A,_EF] :| [B,DF]/FF/ FF | %6
 GB/B/- B/G/B/e/ | [FBd]/[FBd]/[FBd]/[FBd]/ [FBf][FBd] | [EAc]2- [EAc][EF] | [DF]F/F/- F/F/F | %10
 G[_GB] [FB]B/B/ | [FA]F/F/ [=EG]c |{/c} F2- F[_EF] | [DF]F/F/ F/F/F/F/ | G/G/B/B/ B/G/B/e/ | %15
 [FBd][FBd]/[FBd]/ [FBf][FBd] | [EAc]2- [EAc][EF] | [DFB][DFB] [FBd][FBd] | %18
 [EBe][EG] !fermata![^C=EB][CE] | [DF]>[Fd] [Ec][EF] | [DB]2- [DB] D/D/ | G/G/B d>d | %22
 ee/e/ d/G/G/A/ | B/B/B/B/ A/A/c/A/ | G{/^c}d{/c} d [D^FAd] | G/G/B/B/ d/d/d/d/ | e/e/e/e/ dB/B/ | %27
 [^FA]/A/A/A/ [G=e]/[Ge]/[G^c]/[GA]/ | [^Fd]2- [Fd] D/D/ | G/G/B/B/ d/d/d/d/ | e/e/e/e/ d/G/G/A/ | %31
 BB/B/ AB/A/ | G(3(d/^c/d/) gd/d/ | GG GG | c/c/c/c/ B/B/B/B/ | %35
 [GB]/[GB]/[GB]/[GB]/ [GAc]/[GAc][GA^c]/ | [^FAd]2 !fermata![=FAe=f]2 |: %37
"^1.""^2." [Bdb]/[cec']/[dfd']- [dfd']/[cec']/[Bdb]/[cec']/ | [dfd'][Fdf]/[Fdf]/- [Fdf]/f/b/c'/ | %39
"^1\nst\n Verse,  Begin “rag time dance”\n2nd Verse Begin “Clean up dance”" [dd']/f/b/[dd']/- [dd']/f/[dd']/[ee']/- | %40
 [ee']/a/[ff']/a/ c'/[ee']f/ | [cac']/[dbd']/[ec'e']- [ec'e']/[dbd']/[cac']/[dbd']/ | %42
 [ec'e'][Fef]/[Fef]/- [Fef]/f/a/c'/ | [ee']/a/c'/[=e=e']/- [ee']/b/[ee']/[ff']/- | %44
 [ff']/d'/[gg']/d'/ f'/d'/b/f/ | [Bdb]/[cec']/[dfd']/[dfd']/ [dfd']/[cec']/[Bdb]/[cec']/ | %46
 [dfd'][Fdf]/[Fdf]/- [Fdf]/B/d/f/ | %47
"^1\nst\n and 2\nnd\n verses, Begin.\n“Slow drag.”\n     here" [_A_a]/d/f/[Aa]/- [Aa]/d/[Aa]/[Gg]/- | %48
 [Gg]/e/[^F^f]/B/ e/[Gg]g/- | g/(a/b/a/ b/a/b/g/) | f[fd']- [fd']/g/=b/d'/ | %51
 [=e_bc']/[ebc'][ebd']/ [_ec']/f/[ec']/[ef]/ |1 [db]2- [db] z :|2 [db]2 [bd'f'b'] z || %54
[K:Eb]"^Form a “Square.”" B/=B/c/^c/ d2- | d/d/e/=e/ f2 | a/g/f/e/ d/_d/c/_c/ | B z [Bdfb] z |: %58
 [GB][Ge]- [Ge]/[ce]/[Bd]/[Ac]/ | [Gc]/B/=A/B/- B/E/F/^F/ | G[Gc]- [Gc]/c/B/A/ | %61
 A/G/^F/G/- G/G/A/B/ | [Ac]/[Ad][Ac]/- [Ac]/F/G/A/ | [GB]/[Gc][GB]/- [GB]/B/c/^c/ | %64
 d/F^F/ [=EG][_E=A] | [DB]2- [DB] z | [GB][Ge]- [Ge]/[ce]/[Bd]/[Ac]/ | [Gc]/B/=A/B/- B/E/F/^F/ | %68
 G[Gc]- [Gc]/c/B/A/ | A/G/^F/G/- G/G/A/B/ | c[CE] [CEF][CE^F] | [B,EG] [C=EB]2 [CFA] | G2 F2 |1 %73
 [G,B,E]B [DAB]2 :|2 [G,B,E]B/b/ b/b/b |:"^1.""^2." [ad'][af'] [ac']>=b | [ac']/d/f/a/ b/c'b/ | %77
 [gc'][ge'] [gb]>=a | [gb]/B/e/f/ g/b/g/e/ | d/e/f/g/ a/b/d'/[ac']/- | [ac']/B/c/d/- d/a/g/f/ | %81
 e/=e/f/^f/ g/b/c'/[gb]/- | [gb]/B/e/g/- g/g/b | [ad'][af'] [ac']>=b | [ac']/d/f/a/ b/c'b/ | %85
 [gc'][ge'] [gb]>=a | [gb]/B/e/g/ bb | c'[ce] [cef][ce^f] | [Beg] [c=eb]2 [cfa] | g2 f2 |1 %90
 [GBe]b/b/ b/b/b :|2 [GBe] z [egbe'] z |:"^“Stop time.”" z!p! [Bg]- ([Bg]/e/[Bg]/e/) | [Aa] z z2 | %94
 z [Aa]- ([Aa]/e/[Aa]/e/) | [=A=a] z z2 | z [=A=a]- ([Aa]/e/[Aa]/e/) | [Bb] z [cc']2- | %98
 [cc'][Bb]- [Bb]/g/f/B/ | e z [egbe'] z ::"^r.h." (b/=a/_a/=g/ _g/f/=e/_e/ | d/_d/c/_c/ B) z | %102
 (G,/A,/B,) z [=A,EG] | [_A,DF] z [DB] z |"^r.h." (a/g/_g/f/ =e/_e/d/_d/ | c/_c/B/=A/ _A) z | %106
 (F,/G,/A,) z [A,B,DF] |1 [G,B,E] z [EGBe] z :|2 [G,B,E] z [EGBe] z/ e/ |: %109
"^r.h."!p! [_dg][df]/e/ [cg][cf]/e/ | ([_cf]/e/[cf]/g/) [Be][eb]/g/ |!<(! b/g/c'/b/- b/g/f/e/!<)! | %112
!<(! [=Aeg]/[Aef]!f![Bdb]/-!<)!!>(! [Bdb]>e!>)! |!p! [_dg][df]/e/ [cg][cf]/e/ |1 %114
 [_cf]/e/[cf]/g/ [Be][eb]/g/ |!<(! b/g/c'/b/- b/g/!<)!f/e/ | %116
!<(! [Bg]/e/[Adf]!<)!!>(! [Ge]>e!>)! :|2 [_cf]/e/[cf]/g/ [Be][=ce^f] || !^![Beg] z z2 | %119
 z !^![dab]!^![ege'] z || !fermata!x4 |:"^r.h.""^here." (b/=a/_a/=g/ _g/f/=e/_e/ | %122
"^All sing." d/_d/c/_c/!<(! B) z!<)! | (G,/A,/!<(!B,) z!<)! [=A,EG] | %124
!<(! [_A,DF] z!<)!!ff!!>(! !^![DB] z!>)! |!p! (a/g/_g/f/ =e/_e/d/_d/ | c/_c/B/=A/!<(! _A) z!<)! | %127
 (F,/G,/!<(!A,) z!<)! [A,B,DF] |1 [G,B,E]!>(! z !^![EGBe] z!>)! :|2 [G,B,E] z !^![EGBe] z |] %130
V:4
 B,,[F,B,D] F,[B,D] | E,[G,B,E] =E,[G,B,^C] | F,[B,D] [C,C][F,,F,] | [B,,B,] (B,,/C,/ D,)F, |: %4
 [B,,F,]/(B,,/C,/^C,/ D,)F, :| B,,[F,B,D] F,,[F,B,D] | E,,[G,B,E] G,,[G,B,E] | %7
 [B,,B,][F,,F,] [D,,D,][B,,,B,,] | [F,,F,][^F,,^F,] [G,,G,][A,,A,] | [B,,B,][F,B,D] D,[F,B,D] | %10
 E,[B,E] D,_D, | C,[A,C] =E,[B,C=E] | [F,A,C][C,C]/[A,,A,]/- [A,,A,]/[F,,F,]/[G,,G,]/[A,,A,]/ | %13
 [B,,B,][F,B,D] F,,[F,B,D] | E,,[G,B,E] G,,[G,B,E] | [B,,B,][F,,F,] [D,,D,][B,,,B,,] | %16
 [F,,F,][^F,,^F,] [G,,G,][A,,A,] | [B,,B,]2 [_A,,_A,]2 | [G,,G,]2 !fermata![_G,,_G,] z | %19
 [F,,F,][F,B,] [F,A,][F,A,] | [B,,B,]F,B,, z | G,,[G,B,D] G,,[G,B,D] | C,[G,CE] G,,[G,B,D] | %23
 D,,[G,B,D] D,,[^F,CD] | G,,[G,B,D][G,B,D] [D,,D,] | G,,[G,B,D] G,,[G,B,D] | C,[G,CE] G,,[G,B,D] | %27
 A,,[^F,A,D] A,,[G,A,^C] | [D,A,D][A,,A,][D,,D,] z | G,,[G,B,D] G,,[G,B,D] | C,[G,CE] G,,[G,B,D] | %31
 D,,[G,B,D] D,,[^F,CD] | G,,[G,B,D][G,B,D] z | [C,C][C,C] [B,,B,][B,,B,] | %34
 [A,,A,][A,,A,] [A,,A,][G,B,D] | [E,,E,][G,B,E] [E,,E,][E,,E,] | %36
 [D,,D,]2 [C,,C,]!fermata![A,,,A,,] |: B,,[F,B,D] F,,[F,B,D] | B,,[F,B,D] F,,[F,B,D] | %39
 [B,,B,][F,B,D] [=B,,=B,][F,^G,D] | [C,C][F,A,E] [F,,F,][F,A,E] | [F,,F,][F,A,E] [A,,A,][F,A,E] | %42
 [F,,F,][F,A,E] [A,,A,][F,CE] | [C,C][A,EF] [^C,^C][B,CG] | [D,D][B,DF] [B,,B,][F,B,D] | %45
 B,,[F,B,D] F,,[F,B,D] | B,,[F,B,D] F,,[F,B,D] | B,,[B,D] F,[B,D] | E,[B,E] E,[B,E] | %49
 =E,[G,B,^C] E,[G,B,C] | F,[B,D] G,,[G,=B,F] | C,[B,C=E] F,,[A,F] |1 B,[F,,F,] [G,,G,][A,,A,] :|2 %53
 B,[F,,F,][B,,,B,,] z ||[K:Eb][I:staff -1] B,/=B,/C/^C/ D2- | D/D/E/=E/ F2 | A/G/F/E/ D/_D/C/_C/ | %57
[I:staff +1] B, z [B,,B,] z |: E,[G,B,E] A,,[A,CE] | E,[G,B,E][G,B,E] z | C,[G,CE] F,[A,CF] | %61
 C,[G,CE][G,CE] z | F,[A,B,D] B,,[A,B,D] | E,[G,B,E] [G,,G,][_G,,_G,] | %64
 [F,,F,][F,B,D] [C,,C,][F,,F,] | [B,,,B,,][A,,A,] [G,,G,][F,,F,] | [E,,E,][G,B,E] A,,[A,CE] | %67
 E,[G,B,E][G,B,E] z | C,[G,CE] F,[A,CF] | C,[G,CE][G,CE] z | [A,,A,]2 [A,,A,][=A,,=A,] | %71
 [B,,B,] [C,,C,]2 [F,,,F,,] | [B,,,B,,]2 [B,,,B,,]2 |1 [E,,E,] z [B,,,B,,]2 :|2 %74
 [E,,E,]B,/B,/ B,/B,/B, |: F,[A,B,D] B,,[A,B,D] | F,[A,B,D] B,,[A,B,D] | E,[G,B,E] B,,[G,B,E] | %78
 E,[G,B,E] B,,[G,B,E] | F,[A,B,D] B,,[A,B,D] | F,[A,B,D] B,,[A,B,D] | E,[G,B,E] B,,[G,B,E] | %82
 E,[G,B,E] [=E,G,B,^C]2 | F,[A,B,D] B,,[A,B,D] | F,[A,B,D] B,,[A,B,D] | E,[G,B,E] B,,[G,B,E] | %86
 E,[G,B,E] G,[_DE] | [A,CE]2 [A,,A,][=A,,=A,] | [B,,B,] [C,,C,]2 [F,,,F,,] | %89
 [B,,,B,,]2 [B,,,B,,]2 |1 [E,,E,]B,/B,/ B,/B,/B, :|2 [E,,E,] z [E,,,E,,] z |: %92
"_Stamp." z [_DE]-"_Stamp." [DE][DE] |"_Stamp." [CE] z"_Stamp." z2 | %94
"_Stamp." z [CE]-"_Stamp." [CE][CE] |"_Stamp." [_CE_G] z"_Stamp." z2 | %96
"_Stamp." z [_CE_G]-"_Stamp." [CEG][CEG] |"_Stamp." [B,E=G] z"_Stamp." [=A,E_G]2- | %98
"_Stamp." [A,EG][B,E=G]-"_Stamp." [B,EG][B,DA] |"_Stamp." [EG] z"_Stamp." [E,,E,] z :: %100
[K:bass]"^Stamp.""^l.h."[I:staff -1] (g/^f/=f/=e/"^Stamp." _e/d/^c/=c/ | %101
"^Stamp." =B/_B/=A/_A/"^Stamp." G)[I:staff +1] z |"_Stamp." (E,/F,/G,)"_Stamp." z [F,,,F,,] | %103
"_Stamp." [B,,,B,,] z"_Stamp." [B,,F,A,] z | %104
"^Stamp.""^l.h."[I:staff -1] (f/=e/_e/d/"^Stamp." ^c/=c/=B/_B/ | %105
"^Stamp." =A/_A/G/^F/"^Stamp." =F)[I:staff +1] z |"_Stamp." (D,/E,/F,)"_Stamp." z [B,,,B,,] |1 %107
"_Stamp." [E,,E,] z"_Stamp." [E,,E,] z :|2"_Stamp." [E,,E,] z"_Stamp." [E,,E,] z |: %109
"_Stamp.""^l.h."[I:staff -1] [B,B][B,B]"_Stamp." [=A,=A][A,A] | %110
"_Stamp." [_A,_A][A,A]"_Stamp." [G,G][G,G] | %111
"_Stamp."[I:staff +1] [E,,E,][B,EG]"_Stamp." [E,,E,][B,EG] | %112
"_Stamp." [F,,F,][F,,F,]"_Stamp." [B,,,B,,][B,,,B,,] | %113
"^Stamp."[I:staff -1] [B,B][B,B]"^Stamp." [=A,=A][A,A] |1 %114
"^Stamp." [_A,_A][A,A]"^Stamp." [G,G][G,G] | %115
"^Stamp."[I:staff +1] [E,,E,][B,EG]"^Stamp." [E,,E,][B,EG] | %116
"_Stamp." [B,,,B,,][B,,,B,,]"_Stamp." [E,,E,][E,,E,] :|2 %117
"_Stamp."[I:staff -1] [_A,_A][A,A]"_Stamp." [G,G][I:staff +1][=A,,=A,] || %118
"_Stamp." !^![B,,B,] z"_Stamp." z2 |"_Stamp." z !^![B,,B,]"_Stamp."!^![E,,E,] z || %120
"^Pianist  will  pause  until\nlast  Gent  has  finished\ndancing." x4 |: %121
"^Stamp.""^l.h."[I:staff -1] (g/^f/=f/=e/"^Stamp." _e/d/^c/=c/ | %122
"^Stamp." =B/_B/=A/_A/"^Stamp." G)[I:staff +1] z |"_Stamp." (E,/F,/G,)"_Stamp." z [F,,,F,,] | %124
"_Stamp." [B,,,B,,] z"_Stamp." !^![B,,F,A,] z | %125
"^Stamp."[I:staff -1] (f/=e/_e/d/"^Stamp." ^c/=c/=B/_B/ | %126
"^Stamp." =A/_A/G/^F/"^Stamp." =F)[I:staff +1] z |"_Stamp." (D,/E,/F,)"_Stamp." z [B,,,B,,] |1 %128
"_Stamp." [E,,E,] z"_Stamp." !^![E,,E,] z :|2"_Stamp." [E,,E,] z"_Stamp." !^![E,,E,] z |] %130
V:5
 x4 | x4 | x4 | x4 |: x4 :| x4 | x4 | x4 | x4 | x4 | x2 x F | x4 | x4 | x4 | x4 | x4 | x4 | x4 | %18
 x4 | x4 | x4 | x4 | x4 | x4 | G2- G x | x4 | x4 | x4 | x4 | x4 | x4 | x4 | x4 | %33
 e/e/e/e/ d/d/d/d/ | [D^F][DF] [DG] z | x4 | x4 |: x4 | x4 | x4 | x4 | x4 | x4 | x4 | x4 | x4 | %46
 x4 | x4 | x4 | x4 | x4 | x4 |1 x4 :|2 x4 ||[K:Eb] x4 | x4 | x4 | x4 |: x4 | x4 | x4 | x4 | x4 | %63
 x4 | x4 | x4 | x4 | x4 | x4 | x4 | x4 | x4 | z [B,E] z [A,B,D] |1 x4 :|2 x4 |: x4 | x4 | x4 | x4 | %79
 x4 | x4 | x4 | x4 | x4 | x4 | x4 | x4 | x4 | x4 | z [Be] z [ABd] |1 x4 :|2 x4 |: x4 | x4 | x4 | %95
 x4 | x4 | x4 | x4 | x4 :: x4 | x4 | x4 | x4 | x4 | x4 | x4 |1 x4 :|2 x4 |: x4 | x4 | x4 | x4 | %113
 x4 |1 x4 | x4 | x4 :|2 x4 || x4 | x4 || x4 |: x4 | x4 | x4 | x4 | x4 | x4 | x4 |1 x4 :|2 x4 |] %130
V:6
 x4 | x4 | x4 | x4 |: x4 :| x4 | x4 | x4 | x4 | x4 | E,2 x2 | x4 | x4 | x4 | x4 | x4 | x4 | x4 | %18
 x4 | x4 | x4 | x4 | x4 | x4 | x4 | x4 | x4 | x4 | x4 | x4 | x4 | x4 | x4 | x4 | x4 | x4 | x4 |: %37
 x4 | x4 | x4 | x4 | x4 | x4 | x4 | x4 | x4 | x4 | x4 | x4 | x4 | x4 | x4 |1 F2- F z :|2 F2 x2 || %54
[K:Eb] x4 | x4 | x4 | x4 |: x4 | x4 | x4 | x4 | x4 | x4 | x4 | x4 | x4 | x4 | x4 | x4 | x4 | x4 | %72
 x4 |1 x4 :|2 x4 |: x4 | x4 | x4 | x4 | x4 | x4 | x4 | x4 | x4 | x4 | x4 | x4 | x4 | x4 | x4 |1 %90
 x4 :|2 x4 |: x4 | x4 | x4 | x4 | x4 | x4 | x4 | x4 ::[K:bass] x4 | x4 | x4 | x4 | x4 | x4 | x4 |1 %107
 x4 :|2 x4 |: x4 | x4 | x4 | x4 | x4 |1 x4 | x4 | x4 :|2 x4 || x4 | x4 || x4 |: x4 | x4 | x4 | x4 | %125
 x4 | x4 | x4 |1 x4 :|2 x4 |] %130

